src/xmb/retrosystem/reload.svg

<?xml version="1.0" encoding="UTF-8" standalone="no"?>
<svg
   xmlns:dc="http://purl.org/dc/elements/1.1/"
   xmlns:cc="http://creativecommons.org/ns#"
   xmlns:rdf="http://www.w3.org/1999/02/22-rdf-syntax-ns#"
   xmlns:svg="http://www.w3.org/2000/svg"
   xmlns="http://www.w3.org/2000/svg"
   xmlns:sodipodi="http://sodipodi.sourceforge.net/DTD/sodipodi-0.dtd"
   xmlns:inkscape="http://www.inkscape.org/namespaces/inkscape"
   version="1.1"
   id="Calque_1"
   x="0px"
   y="0px"
   width="64"
   height="64"
   viewBox="0 0 64 64"
   enable-background="new 0 0 64 64"
   xml:space="preserve"
   inkscape:version="0.92.3 (2405546, 2018-03-11)"
   sodipodi:docname="reload.svg"><metadata
     id="metadata8"><rdf:RDF><cc:Work
         rdf:about=""><dc:format>image/svg+xml</dc:format><dc:type
           rdf:resource="http://purl.org/dc/dcmitype/StillImage" /><dc:title /></cc:Work></rdf:RDF></metadata><defs
     id="defs6" /><sodipodi:namedview
     pagecolor="#ffffff"
     bordercolor="#666666"
     borderopacity="1"
     objecttolerance="10"
     gridtolerance="10"
     guidetolerance="10"
     inkscape:pageopacity="0"
     inkscape:pageshadow="2"
     inkscape:window-width="1920"
     inkscape:window-height="1001"
     id="namedview4"
     showgrid="true"
     inkscape:zoom="14.75"
     inkscape:cx="31.925424"
     inkscape:cy="31.455979"
     inkscape:window-x="-9"
     inkscape:window-y="-9"
     inkscape:window-maximized="1"
     inkscape:current-layer="Calque_1"
     showguides="false"><inkscape:grid
       type="xygrid"
       id="grid814" /></sodipodi:namedview><path
     style="fill:#1abf9f;stroke:#1a1a1a;stroke-width:1px;stroke-linecap:butt;stroke-linejoin:miter;stroke-opacity:1;fill-opacity:1"
     d="M 32 11.884766 L 32 15.908203 C 23.168 15.908203 16 23.109486 16 32 C 16 36.443246 17.7915 40.466416 20.6875 43.376953 L 23.515625 40.533203 C 21.343625 38.348792 20 35.330926 20 32 C 20 25.334126 25.376 19.931641 32 19.931641 L 32 23.955078 L 44 17.919922 L 32 11.884766 z "
     id="path828" /><path
     id="Reload"
     d="m 43.312,20.623359 -2.828,2.84416 C 42.656,25.651931 44,28.669073 44,31.999999 44,38.665873 38.624,44.06857 32,44.06857 v -4.022857 l -12,6.034286 12,6.034286 v -4.022857 c 8.832,0 16,-7.200915 16,-16.091429 0,-4.443246 -1.792,-8.466103 -4.688,-11.37664 z"
     inkscape:connector-curvature="0"
     style="opacity:1;vector-effect:none;fill:#5b75c9;fill-opacity:1;stroke-width:1;stroke-linecap:butt;stroke-linejoin:miter;stroke-miterlimit:4;stroke-dasharray:none;stroke-dashoffset:0;stroke-opacity:1;stroke:#1a1a1a"
     sodipodi:nodetypes="ccscccccsc" /></svg>

<svg xmlns="http://www.w3.org/2000/svg" xml:space="preserve" width="64" height="64"><path d="M32 11.885v4.023c-8.832 0-16 7.201-16 16.092a16.08 16.08 0 0 0 4.688 11.377l2.828-2.844A12.07 12.07 0 0 1 20 32c0-6.666 5.376-12.068 12-12.068v4.023l12-6.035z" style="fill:#1abf9f;stroke:#1a1a1a;stroke-width:1px;stroke-linecap:butt;stroke-linejoin:miter;stroke-opacity:1;fill-opacity:1"/><path d="m43.312 20.623-2.828 2.845A12.07 12.07 0 0 1 44 32c0 6.666-5.376 12.069-12 12.069v-4.023L20 46.08l12 6.034v-4.023c8.832 0 16-7.2 16-16.091a16.08 16.08 0 0 0-4.688-11.377z" style="opacity:1;vector-effect:none;fill:#5b75c9;fill-opacity:1;stroke-width:1;stroke-linecap:butt;stroke-linejoin:miter;stroke-miterlimit:4;stroke-dasharray:none;stroke-dashoffset:0;stroke-opacity:1;stroke:#1a1a1a"/></svg>
